!!!SOCIAL_FUNCTION:	bird dance songs
!!!PDT:	1956
!!!OTL: No_181_Song_of_an_Old_Dance_(d).krn
!!!LANG: Non-Tone
!!!LING_GROUP: Muskogean
!!!REG: Florida
**kern
*staff1
=1-
*clefF4
*k[b-e-a-]
*M2/4
4r
8.r
16F\
=2
8.G\L
16F\Jk
4E-\
=3
8.F\L
16F\Jk
12F\L
12F\
12F\J
=4
4..F\
16G\
=5
8.G\L
16F\Jk
4E-\
=6
8.F\L
16E-\Jk
12E-\L
12E-\
12E-\J
=7
4..E-\
16BB-/
=8
=
8.E-\L
16E-\Jk
4E-\
=9
16F\LK
8E-\
16E-\Jk
12E-\L
12E-\
12E-\J
=10
4..F\
16G\
=11
8.G\L
16F\Jk
4E-\
=12
8.F\L
16F\Jk
12F\L
12E-\
12E-\J
=13
4..E-\
16E-\
=14:|!
4..E-\
16BB-/
=15
8.E-\L
16E-\Jk
4E-\
=16
16F\LK
8E-\
16E-\Jk
12E-\L
12E-\
12E-\J
=17
4F\
8r
16B-\LL
16B-\JJ
=18
(4.B-\
8E-\)
=19
4B-\
8.B-\L
16B-\Jk
=20
4B-\
4r
==
*-
